X: 1
T: Miskoe's Reel
C: Bob McQuillen 1979
R: reel
Z: 2010 John Chambers <jc:trillian.mit.edu>
S: printed MS of unknown origin
M: C|
L: 1/8
K: D
FE \
| "D"DFAB ABde | "D"f2d2 d2fg | "D"a2ag f2d2 | "A7"gfed c2A2 \
| "D"DFAB ABde | "D"f2d2 d2fg | "D"a2ag f2d2 | "A7"edef "D"d2 :|
|: fg \
| "D"a2ag f2a2 | "Em"efgf "A7"f2e2 | "D"a2ag f2d2 | "G"gfed "A7"e4 \
| "D"a2ag "Bm"f2a2 | "Em"bagf "A7"e2A2 | "D"d2fd "A7"e2fg | "D"f2"A7"e2"D"d2 :|
